svg/fluentui-system-icons/ic_fluent_shield_checkmark_48_regular.svg

<svg width="48" height="48" viewBox="0 0 48 48" fill="none" xmlns="http://www.w3.org/2000/svg">
<path d="M23.1349 4.34751C23.6184 3.88416 24.3811 3.88416 24.8646 4.34751C27.6233 6.99126 31.5494 8.42541 34.9019 9.18733C36.5609 9.56438 38.0409 9.76829 39.1044 9.87765C39.6354 9.93226 40.0606 9.9631 40.3501 9.98021C40.4948 9.98876 40.6054 9.99387 40.6782 9.9968C40.7146 9.99827 40.7415 9.99919 40.7585 9.99973L40.7764 10.0003L40.7791 10.0003C41.4577 10.0164 42 10.5711 42 11.25V21C42 21.9818 41.9459 22.9638 41.8351 23.9398C41.0825 23.4737 40.2789 23.0823 39.4344 22.7759C39.4784 22.1852 39.5 21.5926 39.5 21V12.4253C39.3031 12.4089 39.0853 12.3889 38.8487 12.3645C37.709 12.2473 36.1264 12.0294 34.3479 11.6252C31.1293 10.8937 27.1373 9.52333 23.9998 6.92285C20.8623 9.52333 16.8704 10.8937 13.6519 11.6252C11.8734 12.0294 10.2909 12.2473 9.15128 12.3645C8.91472 12.3889 8.6969 12.4089 8.50002 12.4253L8.5 20.75C8.50001 25.1629 9.6322 29.4668 12.152 33.1001C14.5567 36.5674 18.2722 39.4929 23.6349 41.3163C24.1008 42.1528 24.6564 42.9325 25.2886 43.6425C24.9878 43.746 24.6825 43.8463 24.3726 43.9431C24.1298 44.019 23.8697 44.019 23.6269 43.9431C17.3886 41.9936 12.9592 38.6508 10.0977 34.5249C7.24269 30.4082 6 25.587 6 20.75V11.2501C5.99999 10.5713 6.54169 10.0165 7.2202 10.0004L7.2236 10.0003L7.24154 9.99973C7.25851 9.99919 7.28543 9.99827 7.32181 9.9968C7.39459 9.99387 7.50519 9.98876 7.64987 9.98021C7.93932 9.9631 8.36453 9.93226 8.89553 9.87765C9.95899 9.76829 11.4389 9.56438 13.0979 9.18734C16.4502 8.42541 20.3762 6.99127 23.1349 4.34751ZM46 35C46 28.9249 41.0751 24 35 24C28.9249 24 24 28.9249 24 35C24 41.0751 28.9249 46 35 46C41.0751 46 46 41.0751 46 35ZM41.7071 30.2929C42.0976 30.6834 42.0976 31.3166 41.7071 31.7071L33.7071 39.7071C33.3166 40.0976 32.6834 40.0976 32.2929 39.7071L28.2929 35.7071C27.9024 35.3166 27.9024 34.6834 28.2929 34.2929C28.6834 33.9024 29.3166 33.9024 29.7071 34.2929L33 37.5858L40.2929 30.2929C40.6834 29.9024 41.3166 29.9024 41.7071 30.2929Z" fill="#212121"/>
</svg>

<svg xmlns="http://www.w3.org/2000/svg" width="48" height="48"><path d="M23.135 4.348a1.25 1.25 0 0 1 1.73 0c2.758 2.643 6.684 4.077 10.037 4.84 1.659.376 3.139.58 4.202.69a29.03 29.03 0 0 0 1.654.122h.022A1.25 1.25 0 0 1 42 11.25V21c0 .982-.054 1.964-.165 2.94a12.944 12.944 0 0 0-2.4-1.164c.043-.59.065-1.183.065-1.776v-8.575a38.154 38.154 0 0 1-5.152-.8c-3.219-.731-7.21-2.102-10.348-4.702-3.138 2.6-7.13 3.97-10.348 4.702a38.155 38.155 0 0 1-5.152.8v8.325c0 4.413 1.132 8.717 3.652 12.35 2.405 3.467 6.12 6.393 11.483 8.216a13.041 13.041 0 0 0 1.654 2.326c-.301.104-.607.204-.916.301a1.25 1.25 0 0 1-.746 0c-6.238-1.95-10.668-5.292-13.53-9.418C7.244 30.408 6 25.587 6 20.75v-9.5A1.25 1.25 0 0 1 7.22 10h.022l.08-.003a29.035 29.035 0 0 0 1.574-.12 35.656 35.656 0 0 0 4.202-.69c3.352-.762 7.278-2.196 10.037-4.84ZM46 35c0-6.075-4.925-11-11-11s-11 4.925-11 11 4.925 11 11 11 11-4.925 11-11Zm-4.293-4.707a1 1 0 0 1 0 1.414l-8 8a1 1 0 0 1-1.414 0l-4-4a1 1 0 0 1 1.414-1.414L33 37.586l7.293-7.293a1 1 0 0 1 1.414 0Z"/></svg>
